X: 38600
T: Stoned Giants
R: reel
M: 4/4
K: Eminor
EBBA BcAB|GAFG EDB,D|EB,FG AGAd|CAFB|AGFB,|
EFGA BedB|GEFE DFAd|edBd BAGB|AFGB e4:|
|:[M:6/8] edc dcB|[M:7/8] cBA BE Bd|[M:4/4] cEcd BcAB|GAFG EedB|
CBAG FDFG|CGFE B,Fde|(3cdc (3Bcd (3BA (3GAG|(3GA ED E4:|

